!!!OTL@@DE: Das Landm&auml;dchen
!!!COM: Harder, Augustin
!!!ODT: 1813
!!!OMD: In m&auml;ssiger Bewegung
!!!LYR: Voss, Joh. Heinrich
!!!LDT: 1787
!!!OCL: Erk, Ludwig
!!!GCO: Deutscher Liederschatz, Band 3
**kern	**kern	**kern
*staff3	*staff2	*staff1
*Ipiano	*Ipiano	*Ivox
*clefF4	*clefG2	*clefG2
*k[b-]	*k[b-]	*k[b-]
*F:	*F:	*F:
*M2/4	*M2/4	*M2/4
*MM74	*MM74	*MM74
*	*	*^
8r	8r	16a/LL	16f\LL
*	*clefF4	*	*
.	.	16b-/JJ	16g\JJ
=1	=1	=1	=1
8FF/	(16F\LL	8cc/	8a\
.	16A\	.	.
8r	16c\	8a/	8f\
.	16A\JJ)	.	.
8FF/	(16F\LL	8dd/	8b-\
.	16B-\	.	.
8r	16d\	8ff/	8dd\
.	16B-\JJ)	.	.
=2	=2	=2	=2
4.FF/	(16F\LL	4cc/	4a\
.	16A\	.	.
.	16c\	.	.
.	16A\JJ)	.	.
.	(16F\LL	8a/	8f\
.	16A\	.	.
8r	16c\	8cc/	8a\
.	16A\JJ)	.	.
=3	=3	=3	=3
8GG/	(16E\LL	8g/	8e\
.	16G\	.	.
8r	16c\	8cc/	8e\
.	16G\JJ)	.	.
8GGG/ 8GG/	(16F\LL	16bn/LL	16d\LL
.	16G\	16cc/JJ	16e\JJ
8r	16Bn\	16dd/LL	16f\LL
.	16G\JJ)	16b/JJ	16d\JJ
=4	=4	=4	=4
(8CC/L	(16E\LL	4cc/	4e\
*	*	*v	*v
.	16G\	.
16EE/L	16c\	.
16GG/JJ)	16G\JJ)	.
8CC/ 8C/	8E\ 8c\	8r
*	*	*^
8r	8r	16b-/LL	16g\LL
.	.	16a/JJ	16f\JJ
=5	=5	=5	=5
8CC/ 8C/	(16E\LL	8g/	8e\
.	16G\	.	.
8r	16c\	8g/	8e\
.	16G\JJ)	.	.
8CC/ 8C/	(16F\LL	16b-/LL	16g\LL
.	16A\	16a/JJ	16f\JJ
8r	16c\	16g/LL	16e\LL
.	16A\JJ)	16a/JJ	16f\JJ
=6	=6	=6	=6
4.CC/ 4.C/	(16E\LL	4b-/	4g\
.	16G\	.	.
.	16c\	.	.
.	16G\JJ)	.	.
.	(16E\LL	8g/	8e\
.	16G\	.	.
8r	16c\	16a/LL	16f\LL
.	16G\JJ)	16b-/JJ	16g\JJ
=7	=7	=7	=7
8FFF/ 8FF/	(16F\LL	8cc/	8a\
.	16A\	.	.
8r	16c\	8a/	8f\
.	(16A\JJ)	.	.
8FFF/ 8FF/	16F\LL	8dd/	8b-\
.	16B-\	.	.
8r	16d\	8ff/	8dd\
.	16B-\JJ)	.	.
=8	=8	=8	=8
4.FFF/ 4.FF/	(16F\LL	4cc/	4a\
.	16A\	.	.
.	16c\	.	.
.	(16A\JJ)	.	.
.	16F\LL	8a/	8f\
.	16A\	.	.
8r	16c\	8ff/	8a\
.	16A\JJ)	.	.
=9	=9	=9	=9
8FF/	(16F\LL	8.cc/	8.a\
.	16A\	.	.
8r	16c\	.	.
.	16A\JJ)	16a/	16f\
8CC/L	(16G\LL	16b-/LL	16g\LL
.	16c\	16a/JJ	16f\JJ
8CC/J	16e\	16b-/LL	16g\LL
.	16c\JJ)	16g/JJ	16e\JJ
=10	=10	=10	=10
(8FF/L	(16A\LL	4f/	4f\
.	16c\	.	.
16CC/L	16f\	.	.
16AAA/JJ)	16c\JJ)	.	.
8FFF/ 8FF/	8A\ 8f\	8ryy	8r
*	*	*v	*v
==	==	==
*-	*-	*-
!!!ENC: Craig Stuart Sapp
!!!END: 2004/05/20/
!!!EFL: 406/600
